Gruvbox-Material-Icons/places/scalable/folder-black-remote-open.svg

<svg width="256" height="256" style="isolation:isolate" version="1.1" viewBox="0 0 256 256" xmlns="http://www.w3.org/2000/svg">
  <path d="m53.7 21c-36.32 0-40.04 2.055-40.04 38.37v92.17h230v-71.98c0-36.32-3.724-42.1-40.04-42.1h-89.34l-16.43-16.46h-44.16z" fill="#3c3836"/>
  <g filter="url(#TQLeI4SzuvmfpsKOGdXb2d45eiNst4dq)">
    <path d="m40.77 56.67h176.1c5.758 0 10.43 4.675 10.43 10.43v83.47c0 5.758-4.675 10.43-10.43 10.43h-176.1c-5.759 0-10.43-4.675-10.43-10.43v-83.47c0-5.758 4.675-10.43 10.43-10.43z" fill="#ebdbb2"/>
  </g>
  <path d="m53.7 100.4c-36.32 0-40.04 3.73-40.04 40.04v54.52c0 36.32 3.721 40.05 40.04 40.05h149.9c36.32 0 40.04-3.731 40.04-40.05v-70.98c0-36.32-3.722-40.05-40.04-40.05h-83.43l-16.44 16.46h-50.05z" fill="#282828"/>
  <linearGradient id="_lgradient_9" x2="0" y1=".5" y2="-.5" gradientTransform="matrix(230 0 0 151.1 13.67 83.92)" gradientUnits="userSpaceOnUse">
    <stop stop-color="#ebdbb2" stop-opacity=".07" offset="0"/>
    <stop stop-color="#ebdbb2" stop-opacity="0" offset=".6728"/>
  </linearGradient>
  <path d="m53.7 100.4c-36.32 0-40.04 3.73-40.04 40.04v54.52c0 36.32 3.721 40.05 40.04 40.05h149.9c36.32 0 40.04-3.731 40.04-40.05v-70.98c0-36.32-3.722-40.05-40.04-40.05h-83.43l-16.44 16.46h-50.05z" fill="url(#_lgradient_9)"/>
  <g opacity=".4">
    <radialGradient id="_rgradient_18" cx=".5" cy=".5" r=".272" fy=".136" gradientTransform="matrix(230 0 0 60.62 13.67 21)" gradientUnits="userSpaceOnUse">
      <stop stop-color="#ebdbb2" offset="0"/>
      <stop stop-color="#ebdbb2" stop-opacity=".204" offset="1"/>
    </radialGradient>
    <path d="m53.7 21c-36.32 0-40.04 2.055-40.04 38.37v2.059c0-36.32 3.723-38.37 40.04-38.37h44.16l16.43 16.46h89.34c36.32 0 40.04 5.786 40.04 42.1v-2.057c0-36.32-3.724-42.1-40.04-42.1h-89.34l-16.43-16.46h-44.16z" fill="url(#_rgradient_18)"/>
    <radialGradient id="_rgradient_19" cx=".5" cy=".5" r=".272" fx=".482" fy=".211" gradientTransform="matrix(230 0 0 58.56 13.67 83.92)" gradientUnits="userSpaceOnUse">
      <stop stop-color="#ebdbb2" offset="0"/>
      <stop stop-color="#ebdbb2" stop-opacity=".204" offset="1"/>
    </radialGradient>
    <path d="m120.2 83.92-16.44 16.46h-50.05c-36.32 0-40.04 3.728-40.04 40.04v2.06c0-36.32 3.723-40.05 40.04-40.05h50.05l16.44-16.46h83.43c36.32 0 40.04 3.727 40.04 40.04v-2.057c0-36.32-3.724-40.04-40.04-40.04h-83.43z" fill="url(#_rgradient_19)"/>
  </g>
  <g opacity=".1">
    <path d="m243.7 167.1-65.72 65.84h25.68c36.32 0 40.04-3.727 40.04-40.04v-25.8z" fill="#ebdbb2"/>
  </g>
  <g opacity=".2">
    <path d="m13.67 192.9v2.057c0 36.32 3.723 40.04 40.04 40.04h149.9c36.32 0 40.04-3.729 40.04-40.04v-2.057c0 36.32-3.724 40.04-40.04 40.04h-149.9c-36.32 0-40.04-3.727-40.04-40.04z"/>
  </g>
  <path d="m128 113c-27.58 0-50 22.42-50 50s22.42 50 50 50 50-22.42 50-50-22.42-50-50-50zm0 5c0.062 0 0.125 3e-3 0.188 4e-3 7.628 7.82 12.97 16.38 16.16 25h-32.7c3.192-8.612 8.534-17.18 16.16-25 0.062-1e-3 0.125-4e-3 0.187-4e-3zm7.535 0.637c14.43 2.426 26.5 11.69 32.79 24.36h-18.68c-2.845-8.372-7.52-16.67-14.1-24.36zm-15.07 1e-3c-6.582 7.695-11.26 15.99-14.1 24.36h-18.69c6.286-12.67 18.36-21.94 32.79-24.36zm-34.9 29.36h19.31c-1.303 5.156-1.927 10.3-1.869 15.3 0.057 4.854 0.696 9.779 1.926 14.7h-19.36c-1.699-4.818-2.566-9.891-2.562-15-4e-3 -5.109 0.863-10.18 2.562-15zm24.48 0h35.9c1.425 5.167 2.107 10.3 2.049 15.24-0.062 4.986-0.757 9.945-2.068 14.76h-35.86c-1.311-4.811-2.006-9.77-2.068-14.76-0.058-4.945 0.623-10.08 2.047-15.24zm41.08 0h19.31c1.7 4.818 2.567 9.891 2.564 15 3e-3 5.109-0.864 10.18-2.564 15h-19.36c1.23-4.918 1.869-9.843 1.926-14.7 0.058-5.004-0.567-10.15-1.871-15.3zm-63.45 35h18.71c2.809 8.359 7.43 16.61 14.07 24.36-14.42-2.427-26.5-11.69-32.78-24.36zm23.99 0h32.67c-3.142 8.585-8.408 17.07-16.15 25-0.063 1e-3 -0.126 4e-3 -0.188 4e-3s-0.125-4e-3 -0.187-4e-3c-7.741-7.928-13.01-16.41-16.15-25zm37.94 0h18.71c-6.286 12.67-18.36 21.93-32.78 24.36 6.641-7.75 11.26-16 14.07-24.36z" fill="#bdae93"/>
</svg>

<svg xmlns="http://www.w3.org/2000/svg" style="isolation:isolate" width="256" height="256" viewBox="0 0 256 256">
 <g>
  <path fill="#3c3836" d="M 53.705 21 C 17.39 21 13.667 23.055 13.667 59.371 L 13.667 151.538 L 243.667 151.538 L 243.667 79.563 C 243.667 43.247 239.943 37.461 203.628 37.461 L 114.292 37.461 L 97.864 21 L 53.705 21 Z"/>
  <defs>
   <filter id="TQLeI4SzuvmfpsKOGdXb2d45eiNst4dq" width="400%" height="400%" x="-200%" y="-200%" color-interpolation-filters="sRGB" filterUnits="objectBoundingBox">
    <feGaussianBlur xmlns="http://www.w3.org/2000/svg" in="SourceGraphic" stdDeviation="4.294"/>
    <feOffset xmlns="http://www.w3.org/2000/svg" dx="0" dy="0" result="pf_100_offsetBlur"/>
    <feFlood xmlns="http://www.w3.org/2000/svg" flood-opacity=".4"/>
    <feComposite xmlns="http://www.w3.org/2000/svg" in2="pf_100_offsetBlur" operator="in" result="pf_100_dropShadow"/>
    <feBlend xmlns="http://www.w3.org/2000/svg" in="SourceGraphic" in2="pf_100_dropShadow" mode="normal"/>
   </filter>
  </defs>
  <g filter="url(#TQLeI4SzuvmfpsKOGdXb2d45eiNst4dq)">
   <path fill="#ebdbb2" d="M 40.767 56.667 L 216.9 56.667 C 222.658 56.667 227.333 61.342 227.333 67.1 L 227.333 150.567 C 227.333 156.325 222.658 161 216.9 161 L 40.767 161 C 35.008 161 30.333 156.325 30.333 150.567 L 30.333 67.1 C 30.333 61.342 35.008 56.667 40.767 56.667 Z"/>
  </g>
  <path fill="#282828" d="M 53.705 100.384 C 17.388 100.384 13.667 104.114 13.667 140.429 L 13.667 194.953 C 13.667 231.269 17.388 235 53.705 235 L 203.628 235 C 239.945 235 243.667 231.269 243.667 194.953 L 243.667 123.969 C 243.667 87.653 239.945 83.922 203.628 83.922 L 120.197 83.922 L 103.759 100.384 L 53.705 100.384 Z"/>
  <linearGradient id="_lgradient_9" x1="0" x2="0" y1=".5" y2="-.5" gradientTransform="matrix(230,0,0,151.078,13.667,83.922)" gradientUnits="userSpaceOnUse">
   <stop offset="0%" stop-opacity=".07" style="stop-color:#ebdbb2"/>
   <stop offset="67.282%" stop-opacity="0" style="stop-color:#ebdbb2"/>
  </linearGradient>
  <path fill="url(#_lgradient_9)" d="M 53.705 100.384 C 17.388 100.384 13.667 104.114 13.667 140.429 L 13.667 194.953 C 13.667 231.269 17.388 235 53.705 235 L 203.628 235 C 239.945 235 243.667 231.269 243.667 194.953 L 243.667 123.969 C 243.667 87.653 239.945 83.922 203.628 83.922 L 120.197 83.922 L 103.759 100.384 L 53.705 100.384 Z"/>
  <g opacity=".4">
   <radialGradient id="_rgradient_18" cx=".5" cy=".5" r=".272" fx=".5" fy=".136" gradientTransform="matrix(230,0,0,60.62,13.667,21)" gradientUnits="userSpaceOnUse">
    <stop offset="0%" style="stop-color:#ebdbb2"/>
    <stop offset="100%" stop-opacity=".204" style="stop-color:#ebdbb2"/>
   </radialGradient>
   <path fill="url(#_rgradient_18)" d="M 53.705 21 C 17.39 21 13.667 23.055 13.667 59.371 L 13.667 61.43 C 13.667 25.114 17.39 23.057 53.705 23.057 L 97.864 23.057 L 114.292 39.518 L 203.628 39.518 C 239.943 39.518 243.667 45.304 243.667 81.62 L 243.667 79.563 C 243.667 43.247 239.943 37.461 203.628 37.461 L 114.292 37.461 L 97.864 21 L 53.705 21 Z"/>
  </g>
  <g opacity=".4">
   <radialGradient id="_rgradient_19" cx=".5" cy=".5" r=".272" fx=".482" fy=".211" gradientTransform="matrix(230,0,0,58.565,13.667,83.922)" gradientUnits="userSpaceOnUse">
    <stop offset="0%" style="stop-color:#ebdbb2"/>
    <stop offset="100%" stop-opacity=".204" style="stop-color:#ebdbb2"/>
   </radialGradient>
   <path fill="url(#_rgradient_19)" d="M 120.197 83.922 L 103.759 100.384 L 53.705 100.384 C 17.39 100.384 13.667 104.112 13.667 140.427 L 13.667 142.487 C 13.667 106.171 17.39 102.441 53.705 102.441 L 103.759 102.441 L 120.197 85.981 L 203.628 85.981 C 239.943 85.981 243.667 89.708 243.667 126.024 L 243.667 123.967 C 243.667 87.651 239.943 83.922 203.628 83.922 L 120.197 83.922 Z"/>
  </g>
  <g opacity=".1">
   <path fill="#ebdbb2" d="M 243.667 167.096 L 177.952 232.941 L 203.628 232.941 C 239.943 232.941 243.667 229.214 243.667 192.898 L 243.667 167.096 Z"/>
  </g>
  <g opacity=".2">
   <path d="M 13.667 192.898 L 13.667 194.955 C 13.667 231.271 17.39 235 53.705 235 L 203.628 235 C 239.943 235 243.667 231.271 243.667 194.955 L 243.667 192.898 C 243.667 229.214 239.943 232.941 203.628 232.941 L 53.705 232.941 C 17.39 232.941 13.667 229.214 13.667 192.898 Z"/>
  </g>
 </g>
 <path fill="#bdae93" d="M 128 113 C 100.415 113 78 135.415 78 163 C 78 190.585 100.415 213 128 213 C 155.585 213 178 190.585 178 163 C 178 135.415 155.585 113 128 113 Z M 128 118 C 128.062 118 128.125 118.003 128.188 118.004 C 135.816 125.824 141.158 134.388 144.35 143 L 111.65 143 C 114.842 134.388 120.184 125.824 127.813 118.004 C 127.875 118.003 127.938 118 128 118 L 128 118 Z M 135.535 118.637 C 149.961 121.063 162.036 130.329 168.322 143 L 149.637 143 C 146.792 134.628 142.117 126.332 135.535 118.637 Z M 120.465 118.638 C 113.883 126.333 109.207 134.628 106.362 143 L 87.676 143 C 93.962 130.329 106.039 121.065 120.465 118.638 Z M 85.562 148 L 104.869 148 C 103.566 153.156 102.942 158.299 103 163.303 C 103.057 168.157 103.696 173.082 104.926 178 L 85.562 178 C 83.863 173.182 82.996 168.109 83 163 C 82.996 157.891 83.863 152.818 85.562 148 L 85.562 148 Z M 110.047 148 L 145.951 148 C 147.376 153.167 148.058 158.299 148 163.244 C 147.938 168.23 147.243 173.189 145.932 178 L 110.068 178 C 108.757 173.189 108.062 168.23 108 163.244 C 107.942 158.299 108.623 153.167 110.047 148 Z M 151.129 148 L 170.436 148 C 172.136 152.818 173.003 157.891 173 163 C 173.003 168.109 172.136 173.182 170.436 178 L 151.074 178 C 152.304 173.082 152.943 168.157 153 163.303 C 153.058 158.299 152.433 153.156 151.129 148 Z M 87.677 183 L 106.388 183 C 109.197 191.359 113.818 199.609 120.459 207.359 C 106.037 204.932 93.964 195.668 87.677 183 Z M 111.664 183 L 144.336 183 C 141.194 191.585 135.928 200.068 128.188 207.996 C 128.125 207.997 128.062 208 128 208 C 127.938 208 127.875 207.996 127.813 207.996 C 120.072 200.068 114.806 191.585 111.664 183 L 111.664 183 Z M 149.609 183 L 168.322 183 C 162.036 195.668 149.963 204.932 135.541 207.359 C 142.182 199.609 146.801 191.358 149.609 183 Z"/>
</svg>
